images/gulp.svg

<svg width="80" height="80" viewBox="0 0 80 80" fill="none" xmlns="http://www.w3.org/2000/svg">
<g clip-path="url(#clip0)">
<mask id="mask0" mask-type="alpha" maskUnits="userSpaceOnUse" x="22" y="0" width="36" height="81">
<path d="M50.5197 64.7733L52.6397 61.1599C52.6397 61.1599 47.8264 63.1299 39.7731 63.1299C31.7131 63.1299 26.9731 61.2366 26.9731 61.2366L29.3431 65.1799L30.1831 77.6099C30.1831 78.9533 34.5631 80.0033 39.9697 80.0033C45.3797 80.0033 49.7631 78.9566 49.7631 77.6099L50.5264 64.8266V64.7733H50.5197ZM52.5697 41.2866C50.0064 41.4399 48.7264 44.2966 47.4397 47.3033C46.9631 48.4033 45.3397 53.0933 44.2797 52.5133C43.2197 51.9366 45.6564 48.0833 46.3431 45.7899C45.5531 46.3699 42.6597 48.6199 41.9131 46.5066C40.7197 47.5533 38.1497 48.1066 38.4397 45.4099C37.8031 46.5599 36.3697 48.1533 34.6431 47.4566C32.3997 46.6066 35.9597 39.4199 36.8431 39.7666C37.7297 40.1699 36.6664 41.7666 36.3897 42.4133C35.7697 43.8099 35.0631 45.6066 35.5397 45.9566C36.3397 46.6033 38.5531 43.6133 38.6031 43.5599C39.0164 43.0099 40.1997 39.4633 41.1464 39.8699C42.0964 40.3166 38.7764 45.0066 40.0131 45.9566C40.2664 46.1566 41.2897 45.8566 41.9097 45.1599C42.3097 44.7599 42.1697 43.7599 43.5064 40.5666C44.8531 37.3699 46.0531 33.3799 46.9697 33.6799C47.8864 33.9799 47.1331 36.0233 46.7997 36.8233C45.2531 40.4166 42.5731 46.3033 43.8331 45.8566C45.0797 45.4066 45.7297 45.4066 46.9764 43.9599C48.2231 42.5133 48.1264 40.1199 48.9731 40.1699C49.7731 40.2166 49.6731 41.0166 49.4731 41.5633C50.2731 40.6633 53.3131 38.6699 54.0164 40.6166C54.8631 42.9099 49.6697 46.2566 50.9697 46.0566C52.2197 45.9066 54.2631 44.6099 55.1631 43.4133L57.5597 21.7466C57.5597 21.7466 55.1131 23.7466 39.6897 23.7466C24.2664 23.7466 22.0764 21.7999 22.0764 21.7999L24.1197 41.5666C25.2197 38.4733 27.8131 32.1866 31.8597 32.4333C33.7064 32.5333 36.2031 36.1299 34.0531 36.2299C33.1531 36.2799 33.0531 34.4333 32.0064 34.1833C31.2097 34.0299 30.1597 34.6333 29.4631 35.3333C28.1164 36.6799 25.1164 42.0199 25.5164 44.6699C26.0164 48.0633 30.2064 43.5166 30.9064 42.1699C31.4031 41.2266 31.7531 38.3766 32.7997 38.6766C33.8997 38.9766 32.7031 41.9233 31.8997 44.4666C30.9997 47.3633 30.5531 50.4033 29.4597 50.0533C28.3597 49.7066 30.1564 45.9633 30.0531 45.3133C29.0097 46.3099 27.1097 48.7133 24.6164 47.5099L25.8631 59.8399C25.8631 59.8399 29.2597 62.4833 39.4397 62.4833C49.6197 62.4833 53.1664 59.8399 53.1664 59.8399L54.7631 45.5633C53.4664 46.8633 49.3731 49.1066 49.1231 46.5633C48.9264 44.5166 53.5664 41.5699 52.3697 41.5166L52.5697 41.2866ZM57.8197 2.22993L48.9564 11.5633L47.3364 17.8999C53.6064 18.2999 57.9664 19.1866 57.9664 20.2133C57.9664 21.6099 49.9197 22.7366 39.9964 22.7366C30.0731 22.7366 22.0297 21.5933 22.0297 20.1933C22.0297 18.7966 30.0764 17.6466 39.9997 17.6466C41.4097 17.6466 42.8131 17.6466 44.2131 17.6999L46.0831 10.1133L55.4997 0.129926C55.7264 -0.170074 56.4331 0.0799256 57.0797 0.629926C57.7264 1.12659 58.0764 1.77659 57.8764 2.07659V2.17659L57.8197 2.22993ZM45.0397 21.5466C45.0397 21.5466 43.2964 21.5466 43.0064 21.2799C42.9331 21.1966 42.8864 21.0866 42.8864 20.9799C42.8864 20.7866 43.0164 20.6766 43.1864 20.6133L43.3331 20.8633C43.2631 20.8833 43.2364 20.9133 43.2231 20.9399C43.2231 21.0766 44.2697 21.1699 45.0731 21.1599C45.8697 21.1499 46.8431 21.0833 46.8497 20.9466C46.8497 20.9066 46.7731 20.8699 46.6464 20.8366L46.7964 20.5966C47.0064 20.6633 47.1864 20.7899 47.1864 20.9999C47.1864 21.3666 46.7164 21.4266 46.4197 21.4699C46.0631 21.5199 45.0464 21.5466 45.0464 21.5466H45.0397Z" fill="black"/>
</mask>
<g mask="url(#mask0)">
<rect x="-2" width="80" height="80" fill="#EF473B"/>
</g>
</g>
<defs>
<clipPath id="clip0">
<rect width="80" height="80" fill="white"/>
</clipPath>
</defs>
</svg>

<svg width="80" height="80" viewBox="0 0 80 80" fill="none" xmlns="http://www.w3.org/2000/svg"><g clip-path="url(#clip0)"><mask id="mask0" maskUnits="userSpaceOnUse" x="22" y="0" width="36" height="81"><path d="M50.52 64.773l2.12-3.613s-4.814 1.97-12.867 1.97c-8.06 0-12.8-1.893-12.8-1.893l2.37 3.943.84 12.43c0 1.343 4.38 2.393 9.787 2.393 5.41 0 9.793-1.046 9.793-2.393l.763-12.783v-.054h-.006zm2.05-23.486c-2.564.153-3.844 3.01-5.13 6.016-.477 1.1-2.1 5.79-3.16 5.21-1.06-.576 1.376-4.43 2.063-6.723-.79.58-3.683 2.83-4.43.717-1.193 1.046-3.763 1.6-3.473-1.097-.637 1.15-2.07 2.743-3.797 2.047-2.243-.85 1.317-8.037 2.2-7.69.887.403-.177 2-.453 2.646-.62 1.397-1.327 3.194-.85 3.544.8.646 3.013-2.344 3.063-2.397.413-.55 1.597-4.097 2.543-3.69.95.447-2.37 5.137-1.133 6.087.253.2 1.277-.1 1.897-.797.4-.4.26-1.4 1.596-4.593 1.347-3.197 2.547-7.187 3.464-6.887.916.3.163 2.343-.17 3.143-1.547 3.594-4.227 9.48-2.967 9.034 1.247-.45 1.897-.45 3.143-1.897 1.247-1.447 1.15-3.84 1.997-3.79.8.047.7.847.5 1.393.8-.9 3.84-2.893 4.543-.946.847 2.293-4.346 5.64-3.046 5.44 1.25-.15 3.293-1.447 4.193-2.644l2.397-21.666s-2.447 2-17.87 2c-15.424 0-17.614-1.947-17.614-1.947l2.044 19.767c1.1-3.094 3.693-9.38 7.74-9.134 1.846.1 4.343 3.697 2.193 3.797-.9.05-1-1.797-2.047-2.047-.796-.153-1.846.45-2.543 1.15-1.347 1.347-4.347 6.687-3.947 9.337.5 3.393 4.69-1.153 5.39-2.5.497-.943.847-3.793 1.894-3.493 1.1.3-.097 3.246-.9 5.79-.9 2.896-1.347 5.936-2.44 5.586-1.1-.346.696-4.09.593-4.74-1.043.997-2.943 3.4-5.437 2.197l1.247 12.33s3.397 2.643 13.577 2.643 13.726-2.643 13.726-2.643l1.597-14.277c-1.297 1.3-5.39 3.544-5.64 1-.197-2.046 4.443-4.993 3.247-5.046l.2-.23zM57.82 2.23l-8.864 9.333-1.62 6.337c6.27.4 10.63 1.287 10.63 2.313 0 1.397-8.046 2.524-17.97 2.524-9.923 0-17.966-1.144-17.966-2.544 0-1.396 8.046-2.546 17.97-2.546 1.41 0 2.813 0 4.213.053l1.87-7.587L55.5.13c.226-.3.933-.05 1.58.5.646.497.996 1.147.796 1.447v.1l-.056.053zM45.04 21.547s-1.744 0-2.034-.267a.468.468 0 01-.12-.3c0-.193.13-.303.3-.367l.147.25c-.07.02-.097.05-.11.077 0 .137 1.047.23 1.85.22.797-.01 1.77-.077 1.777-.213 0-.04-.077-.077-.204-.11l.15-.24c.21.066.39.193.39.403 0 .367-.47.427-.766.47-.357.05-1.374.077-1.374.077h-.006z" fill="#000"/></mask><g mask="url(#mask0)"><path fill="#EF473B" d="M-2 0h80v80H-2z"/></g></g><defs><clipPath id="clip0"><path fill="#fff" d="M0 0h80v80H0z"/></clipPath></defs></svg>
